X:1
T:Robin Shure in Hairst
M:3/2
L:1/8
K:G
B-c d2 G2 B2 d4| A4 c3 d e2d-c|B-c d2 G2 B2 d4| B2 d4 g2g-f-e-d| g4 B2 d2e-d-c-B|\
 A4 c3 d e4| g4 B2 d2e-d-c-B| g4 f2 e2f-g a2|
